content/packer/v1.10.x/img/logo-packer-padded.svg

<svg width="225" height="84" viewBox="0 0 225 84" fill="none" xmlns="http://www.w3.org/2000/svg">
<style>
@media (prefers-color-scheme: dark) {
    :root {
      --text-color: #FFFFFF;
      --background-color: #0d1117;
    }
}
@media (prefers-color-scheme: light) {
    :root {
      --text-color: #000000;
      --background-color: #FFFFFF;
    }
}
.text {
  fill: var(--text-color);
}
.background {
  fill: var(--background-color);
}
</style>
<rect class="background" width="225" height="84" fill="white"/>
<path class="text" d="M84.23 19.86V16.63H81.23V19.86H79.77V12.11H81.28V15.36H84.28V12.11H85.79V19.86H84.23ZM91.23 19.86H90.03L90 19.48C89.469 19.8209 88.851 20.0015 88.22 20C87.16 20 86.7 19.3 86.7 18.34C86.7 17.2 87.21 16.77 88.4 16.77H89.8V16.15C89.8 15.53 89.62 15.31 88.69 15.31C88.1491 15.3151 87.61 15.372 87.08 15.48L86.9 14.41C87.5528 14.2381 88.225 14.1508 88.9 14.15C90.73 14.15 91.27 14.77 91.27 16.15L91.23 19.86ZM89.8 17.75H88.72C88.24 17.75 88.11 17.88 88.11 18.3C88.11 18.72 88.24 18.86 88.7 18.86C89.0848 18.8541 89.4623 18.7545 89.8 18.57V17.75ZM94.31 20C93.6315 19.9892 92.958 19.8814 92.31 19.68L92.51 18.61C93.0739 18.7644 93.6554 18.845 94.24 18.85C94.89 18.85 94.98 18.71 94.98 18.29C94.98 17.87 94.91 17.77 93.98 17.56C92.56 17.23 92.39 16.88 92.39 15.8C92.39 14.72 92.9 14.18 94.57 14.18C95.1589 14.1821 95.7458 14.2491 96.32 14.38L96.18 15.49C95.6515 15.3965 95.1166 15.343 94.58 15.33C93.95 15.33 93.84 15.47 93.84 15.81C93.84 16.15 93.84 16.29 94.66 16.49C96.29 16.9 96.44 17.11 96.44 18.26C96.44 19.41 96.07 20 94.31 20ZM101 19.86V16C101 15.7 100.87 15.55 100.53 15.55C99.9957 15.5994 99.476 15.7523 99 16V19.86H97.54V12L99 12.22V14.69C99.6646 14.3635 100.39 14.1795 101.13 14.15C102.13 14.15 102.45 14.8 102.45 15.8V19.86H101ZM103.68 13.48V12.11H105.14V13.48H103.68ZM103.68 19.86V14.27H105.14V19.86H103.68ZM106.3 14.32C106.3 12.92 107.15 12.1 109.13 12.1C109.857 12.0992 110.582 12.1831 111.29 12.35L111.12 13.6C110.476 13.4812 109.824 13.4143 109.17 13.4C108.17 13.4 107.8 13.74 107.8 14.56V17.5C107.8 18.31 108.13 18.66 109.17 18.66C109.824 18.6457 110.476 18.5788 111.12 18.46L111.29 19.71C110.584 19.8904 109.859 19.9877 109.13 20C107.13 20 106.3 19.19 106.3 17.78V14.32ZM114.51 20C112.52 20 112 18.92 112 17.77V16.36C112 15.21 112.54 14.16 114.53 14.16C116.52 14.16 117 15.21 117 16.36V17.77C117 18.92 116.51 20 114.51 20ZM114.51 15.37C113.73 15.37 113.43 15.7 113.43 16.37V17.87C113.43 18.5 113.73 18.87 114.51 18.87C115.29 18.87 115.59 18.54 115.59 17.87V16.31C115.59 15.68 115.29 15.35 114.51 15.35V15.37ZM121.15 15.46C120.617 15.691 120.102 15.9617 119.61 16.27V19.87H118.15V14.27H119.38L119.48 14.89C119.953 14.5795 120.464 14.3308 121 14.15L121.15 15.46ZM127 18C127.044 18.2656 127.026 18.5378 126.946 18.7949C126.866 19.0521 126.728 19.2871 126.541 19.4813C126.355 19.6755 126.126 19.8235 125.872 19.9135C125.618 20.0036 125.347 20.0332 125.08 20C124.559 19.995 124.041 19.9415 123.53 19.84V22.1L122 22.31V14.31H123.16L123.3 14.78C123.836 14.3954 124.48 14.189 125.14 14.19C126.31 14.19 126.93 14.86 126.93 16.13L127 18ZM123.52 18.63C123.944 18.7215 124.376 18.7718 124.81 18.78C125.34 18.78 125.54 18.54 125.54 18.03V16.03C125.54 15.57 125.36 15.32 124.82 15.32C124.341 15.3375 123.883 15.5174 123.52 15.83V18.63Z" fill="black"/>
<path d="M23 19.34L42.45 30.58V72.01L23 60.77V19.34Z" fill="#02a8ef"/>
<path d="M52.07 24.19L30.94 12V20.47L45.31 28.77V54.13L52.07 58C56.26 60.42 59.68 59 59.68 54.78V36.19C59.68 32 56.26 26.6 52.07 24.19Z" fill="#02a8ef"/>
<path class="text" d="M79.77 26.1H92.25C99.65 26.1 102.38 29.1 102.38 34.75V39.12C102.38 44.69 99.38 47.72 91.96 47.72H85.82V58.09H79.77V26.1ZM91.92 31.43H85.82V42.43H91.92C95.33 42.43 96.34 41.18 96.34 38.54V35.22C96.34 32.58 95.23 31.43 91.92 31.43ZM122.85 58.09H118L117.57 56.51C115.487 57.8653 113.055 58.5846 110.57 58.58C106.3 58.58 104.47 55.65 104.47 51.58C104.47 46.82 106.54 45 111.29 45H117V42.57C117 39.98 116.28 39.06 112.53 39.06C110.351 39.0834 108.181 39.3246 106.05 39.78L105.33 35.31C107.936 34.5906 110.626 34.2207 113.33 34.21C120.68 34.21 122.84 36.8 122.84 42.66L122.85 58.09ZM117 49.25H112.67C110.75 49.25 110.22 49.78 110.22 51.56C110.22 53.34 110.75 53.91 112.57 53.91C114.124 53.8898 115.648 53.477 117 52.71V49.25ZM126.35 49.59V43.2C126.35 36.91 129.09 34.2 136.44 34.2C138.378 34.2101 140.305 34.4997 142.16 35.06L141.44 39.86C139.852 39.4679 138.225 39.2599 136.59 39.24C133.23 39.24 132.22 40.24 132.22 43.13V49.61C132.22 52.49 133.22 53.5 136.59 53.5C138.226 53.4946 139.855 53.2864 141.44 52.88L142.16 57.68C140.307 58.2525 138.379 58.5425 136.44 58.54C129.09 58.57 126.35 55.88 126.35 49.59ZM145.85 58.09V25.14L151.71 24.32V58.09H145.85ZM165.74 34.7L158.87 46.28L166 58.09H159.56L152.5 46.27L159.18 34.69L165.74 34.7ZM177.94 53.76C180.368 53.75 182.781 53.3793 185.1 52.66L186.01 57.08C183.252 58.0749 180.342 58.5792 177.41 58.57C170.06 58.57 167.52 55.16 167.52 49.57V43.37C167.52 38.42 169.73 34.24 177.22 34.24C184.71 34.24 186.39 38.61 186.39 43.65V48.65H173.39V49.85C173.37 52.66 174.38 53.76 177.94 53.76ZM173.38 43.91H180.82V42.77C180.82 40.56 180.15 39.02 177.27 39.02C174.39 39.02 173.38 40.56 173.38 42.77V43.91ZM202 39.6C199.849 40.5753 197.776 41.7154 195.8 43.01V58.09H190V34.7H194.95L195.33 37.29C197.236 36.0011 199.304 34.9689 201.48 34.22L202 39.6Z" fill="black"/>
</svg>

<svg xmlns="http://www.w3.org/2000/svg" width="225" height="84" fill="none" viewBox="0 0 225 84">
  <style>
    @media (prefers-color-scheme:dark){:root{--text-color:#FFFFFF;--background-color:#0d1117}}@media (prefers-color-scheme:light){:root{--text-color:#000000;--background-color:#FFFFFF}}.text{fill:var(--text-color)}
  </style>
  <path fill="var(--background-color)" d="M0 0h225v84H0z"/>
  <path fill="#000" d="M84.23 19.86v-3.23h-3v3.23h-1.46v-7.75h1.51v3.25h3v-3.25h1.51v7.75zm7 0h-1.2l-.03-.38a3.3 3.3 0 0 1-1.78.52c-1.06 0-1.52-.7-1.52-1.66 0-1.14.51-1.57 1.7-1.57h1.4v-.62c0-.62-.18-.84-1.11-.84-.54.005-1.08.062-1.61.17l-.18-1.07a8 8 0 0 1 2-.26c1.83 0 2.37.62 2.37 2zm-1.43-2.11h-1.08c-.48 0-.61.13-.61.55s.13.56.59.56a2.4 2.4 0 0 0 1.1-.29zM94.31 20a7.1 7.1 0 0 1-2-.32l.2-1.07a6.8 6.8 0 0 0 1.73.24c.65 0 .74-.14.74-.56s-.07-.52-1-.73c-1.42-.33-1.59-.68-1.59-1.76s.51-1.62 2.18-1.62c.589.002 1.176.07 1.75.2l-.14 1.11a11 11 0 0 0-1.6-.16c-.63 0-.74.14-.74.48s0 .48.82.68c1.63.41 1.78.62 1.78 1.77S96.07 20 94.31 20m6.69-.14V16c0-.3-.13-.45-.47-.45A4.1 4.1 0 0 0 99 16v3.86h-1.46V12l1.46.22v2.47a5.3 5.3 0 0 1 2.13-.54c1 0 1.32.65 1.32 1.65v4.06zm2.68-6.38v-1.37h1.46v1.37zm0 6.38v-5.59h1.46v5.59zm2.62-5.54c0-1.4.85-2.22 2.83-2.22a9.4 9.4 0 0 1 2.16.25l-.17 1.25a12 12 0 0 0-1.95-.2c-1 0-1.37.34-1.37 1.16v2.94c0 .81.33 1.16 1.37 1.16a12 12 0 0 0 1.95-.2l.17 1.25a9.4 9.4 0 0 1-2.16.29c-2 0-2.83-.81-2.83-2.22zm8.21 5.68c-1.99 0-2.51-1.08-2.51-2.23v-1.41c0-1.15.54-2.2 2.53-2.2s2.47 1.05 2.47 2.2v1.41c0 1.15-.49 2.23-2.49 2.23m0-4.63c-.78 0-1.08.33-1.08 1v1.5c0 .63.3 1 1.08 1s1.08-.33 1.08-1v-1.56c0-.63-.3-.96-1.08-.96zm6.64.09a11.6 11.6 0 0 0-1.54.81v3.6h-1.46v-5.6h1.23l.1.62c.473-.31.984-.56 1.52-.74zM127 18a1.726 1.726 0 0 1-1.128 1.913 1.7 1.7 0 0 1-.792.087 8.4 8.4 0 0 1-1.55-.16v2.26l-1.53.21v-8h1.16l.14.47a3.15 3.15 0 0 1 1.84-.59c1.17 0 1.79.67 1.79 1.94zm-3.48.63q.638.137 1.29.15c.53 0 .73-.24.73-.75v-2c0-.46-.18-.71-.72-.71a2.1 2.1 0 0 0-1.3.51z" class="text"/>
  <path fill="#02a8ef" d="m23 19.34 19.45 11.24v41.43L23 60.77z"/>
  <path fill="#02a8ef" d="M52.07 24.19 30.94 12v8.47l14.37 8.3v25.36L52.07 58c4.19 2.42 7.61 1 7.61-3.22V36.19c0-4.19-3.42-9.59-7.61-12"/>
  <path fill="#000" d="M79.77 26.1h12.48c7.4 0 10.13 3 10.13 8.65v4.37c0 5.57-3 8.6-10.42 8.6h-6.14v10.37h-6.05zm12.15 5.33h-6.1v11h6.1c3.41 0 4.42-1.25 4.42-3.89v-3.32c0-2.64-1.11-3.79-4.42-3.79m30.93 26.66H118l-.43-1.58a12.8 12.8 0 0 1-7 2.07c-4.27 0-6.1-2.93-6.1-7 0-4.76 2.07-6.58 6.82-6.58H117v-2.43c0-2.59-.72-3.51-4.47-3.51a32.7 32.7 0 0 0-6.48.72l-.72-4.47a30.5 30.5 0 0 1 8-1.1c7.35 0 9.51 2.59 9.51 8.45zM117 49.25h-4.33c-1.92 0-2.45.53-2.45 2.31s.53 2.35 2.35 2.35a9.2 9.2 0 0 0 4.43-1.2zm9.35.34V43.2c0-6.29 2.74-9 10.09-9 1.938.01 3.865.3 5.72.86l-.72 4.8a21.3 21.3 0 0 0-4.85-.62c-3.36 0-4.37 1-4.37 3.89v6.48c0 2.88 1 3.89 4.37 3.89a19.8 19.8 0 0 0 4.85-.62l.72 4.8a19.3 19.3 0 0 1-5.72.86c-7.35.03-10.09-2.66-10.09-8.95m19.5 8.5V25.14l5.86-.82v33.77zm19.89-23.39-6.87 11.58L166 58.09h-6.44l-7.06-11.82 6.68-11.58zm12.2 19.06a24.5 24.5 0 0 0 7.16-1.1l.91 4.42a25.1 25.1 0 0 1-8.6 1.49c-7.35 0-9.89-3.41-9.89-9v-6.2c0-4.95 2.21-9.13 9.7-9.13s9.17 4.37 9.17 9.41v5h-13v1.2c-.02 2.81.99 3.91 4.55 3.91m-4.56-9.85h7.44v-1.14c0-2.21-.67-3.75-3.55-3.75s-3.89 1.54-3.89 3.75zM202 39.6a46 46 0 0 0-6.2 3.41v15.08H190V34.7h4.95l.38 2.59a26.2 26.2 0 0 1 6.15-3.07z" class="text"/>
</svg>
